X:1
T:Title
%%score { ( 1 4 ) | ( 2 3 ) }
L:1/8
M:4/4
K:C
V:1 treble nm="Grand Piano"
V:4 treble 
V:2 bass 
V:3 bass 
V:1
 z4 z2[Q:1/4=100] [EG]2 | [Ec]2 [FB]>[FA] [EG]2 [CE][EG] | [Ec]2 [FB]>[FA] [EG]2 [CE]2 | %3
 [B,D]2 [B,D]>[CE] [DF][EG][B,FA][B,FG] | [CEG]4 [CE]2 [CEG]2 | [Ec]2 [FB]>[FA] [EG]2 [CE][EG] | %6
[M:3/4] [Ec]2 [FB]>[FA] [EG]2 |[M:1/4] E2 |[M:4/4] D2 G>B [^Fd][Fc][FB][FA] | G6 G2 | %10
 d2 d>^c edBG | [FA]2 [EG]>[_E^F] [=EG]2 G2 | d2 d>^c edBG | e4 (3eGA (3Bcd | %14
 [Ge]2 [Ge]>[Ge] [Gd][Gd][Gd][Gd] | [Gc]2 [Gc]2 B2 A2 | G2 c>c ddAB | [Ec]6 z2 | %18
 [Ge]2 [Ge]2 [^Ge]2 B2 | c>c BA [^Ge]4 | EE^F^G AB c2 |[M:5/4] [Ad]2 [A_e]2 [^G=e]6 | %22
[M:4/4] [Ge]2 [Ge]>[Fd] [Fd][Ec] [EG]2 | [Gc]2 [Gd]>[Gc] [GB]A A2 | G2 [Gc]>[Ec] [FA][GB][Gc][Ad] | %25
[M:7/8] [Ge]2 [Fd]2 [Ec]3 |] %26
V:2
 z4 z2 [C,C]2 | [C,G,]2 [C,A,]>[C,B,] [C,C]2 [C,G,][C,C] | [C,G,]2 [C,A,]>[C,B,] [C,C]2 [C,G,]2 | %3
 [G,,G,]2 [G,,G,]>[G,,G,] [G,,G,][G,,G,]G,,G,, | z4 G,2 C,2 | %5
 [C,G,]2 [C,A,]>[C,B,] [C,C]2 [C,G,][C,C] |[M:3/4] [C,G,]2 [C,A,]>[C,B,] [C,C]2 |[M:1/4] [C,G,C]2 | %8
[M:4/4] [D,G,B,]2 [D,B,D]>[D,G,D] [D,A,][D,A,][D,D][D,C] | [G,B,]6 [G,B,]2 | %10
 [G,B,F]2 [G,B,F]>[G,B,F] [G,B,F][G,B,F][G,DF][G,B,F] | [C,C]2 [C,C]>[C,C] [C,C]2 [E,C]2 | %12
 [G,B,F]2 [G,B,F]>[G,B,F] [G,B,F][G,B,F][G,DF][B,D] | [CG]4 z4 | %14
 [C,C]2 [C,C]>[C,C] [D,B,][D,B,][D,B,][D,B,] | [E,C]2 [E,C]>[E,C] [F,CF]2 [^F,C_E]2 | %16
 [G,CE]2 [G,CE]>[G,CE] [G,B,F][G,B,F][G,DF][G,DF] | [C,C]6 z2 | [C,C]2 [C,C]2 [E,B,]2 [^G,DE]2 | %19
 [A,CE]>C B,A, [E,B,]4 | E,E,^F,^G, A,B, C2 |[M:5/4] [F,C]2 [F,A,]2 [E,B,]6 | %22
[M:4/4] [C,C]2 [C,C]>[C,C] [C,G,][C,G,] [C,C]2 | [E,C]2 [E,C]>[E,C] [F,C][F,CF] [F,CF]2 | %24
 [G,CE]2 [E,C]>[C,C] [F,C][D,D][E,C][F,C] |[M:7/8] [G,C]2 [G,B,]2 [C,C]3 |] %26
V:3
 x8 | x8 | x8 | x8 | C,6 z2 | x8 |[M:3/4] x6 |[M:1/4] x2 |[M:4/4] x8 | x8 | x8 | x8 | x8 | x8 | %14
 x8 | x8 | x8 | x8 | x8 | x8 | x8 |[M:5/4] x10 |[M:4/4] x8 | x8 | x8 |[M:7/8] x7 |] %26
V:4
 x8 | x8 | x8 | x8 | x8 | x8 |[M:3/4] x6 |[M:1/4] x2 |[M:4/4] x8 | x8 | x8 | x8 | x8 | x8 | x8 | %15
 z2 z z/ G/- G/ z/ z z2 | x8 | x8 | x8 | x8 | x8 |[M:5/4] x10 |[M:4/4] x8 | x8 | x8 |[M:7/8] x7 |] %26

